X:38
T:A la cours du palais 
R:an dro
C:Trad.
N:tagafolk.abc
D:voir Tranes-Meuriennes
O:France
A:Bretagne
Z:<anamnese@laposte.net>
M:4/4
L:1/8
Q:1/4=162
K:C
c2cc BAB2 | cBAB cBA2 | c2cc BABB | cBAB c2A2 :|
BABc d2BB-| BABc d2B2 | BABc d2BB-| BABc d2B2 ||
